web/assets/img/functions/950.svg

<svg width="512" height="512" viewBox="0 0 512 512" fill="none" xmlns="http://www.w3.org/2000/svg">
    <path d="M155 441.806C172.839 441.806 187.3 431.777 187.3 419.406C187.3 407.035 172.839 397.006 155 397.006C137.161 397.006 122.7 407.035 122.7 419.406C122.7 431.777 137.161 441.806 155 441.806Z"
          fill="#00D151"/>
    <path d="M356.6 441.806C374.439 441.806 388.9 431.777 388.9 419.406C388.9 407.035 374.439 397.006 356.6 397.006C338.761 397.006 324.3 407.035 324.3 419.406C324.3 431.777 338.761 441.806 356.6 441.806Z"
          fill="#00D151"/>
    <path d="M374.811 503.692C368.352 503.692 361.894 503.692 355.333 503.692C349.797 503.692 345.902 500.105 345.492 494.671C345.287 491.391 345.287 491.288 342.006 491.083C337.598 490.673 333.088 490.366 328.577 490.161C318.838 489.751 309.202 489.546 299.463 489.238C273.22 488.52 246.976 488.623 220.63 488.931C203.408 489.136 186.186 489.648 168.963 491.083C167.221 491.186 166.503 491.801 166.606 493.646C166.811 499.694 161.787 504 156.047 503.795C143.335 503.487 130.623 503.487 118.014 503.795C112.478 503.898 108.07 498.669 108.173 494.056C108.275 485.343 108.583 476.731 107.865 468.018C107.045 458.382 106.328 448.643 105.507 439.006C104.79 429.473 104.79 420.041 105.61 410.508C106.123 405.279 106.635 400.051 108.173 395.028C110.428 387.852 113.504 381.086 119.552 376.268C120.782 375.243 120.269 374.833 119.142 374.32C114.939 372.475 110.838 370.425 108.07 366.632C104.175 361.199 104.38 357.713 110.941 354.125C115.656 351.46 120.987 350.845 126.318 350.127C129.393 349.717 132.469 349.615 135.544 349.307C137.389 349.102 138.722 349.717 139.85 351.255C140.875 352.587 141.9 353.818 142.925 355.15C143.745 356.381 144.36 356.278 144.873 354.843C146.82 349.41 149.076 344.181 151.536 339.056C155.944 329.727 160.455 320.398 166.811 312.197C170.399 307.584 175.217 304.611 180.957 303.483C195.309 300.613 209.764 298.563 224.321 297.538C235.085 296.82 245.746 296 256.51 296C280.806 296 304.896 298.46 328.885 302.868C337.496 304.406 343.954 309.122 348.567 316.4C356.051 328.189 361.996 340.798 367.02 353.818C367.225 354.228 367.327 354.74 367.532 355.15C367.942 356.278 368.557 356.278 369.275 355.355C370.403 353.92 371.53 352.382 372.658 350.947C373.375 350.025 374.196 349.41 375.426 349.41C383.934 349.82 392.34 350.435 400.336 353.715C400.747 353.92 401.054 354.023 401.464 354.228C406.897 357.098 408.025 361.301 404.437 366.324C401.669 370.22 397.569 372.475 393.366 374.32C391.213 375.243 391.213 375.243 392.853 376.678C400.234 383.034 403.514 391.543 405.155 400.871C407.307 413.071 407.307 425.372 406.59 437.776C405.565 456.434 402.899 474.989 403.822 493.749C404.027 497.542 402.489 500.412 399.414 502.565C398.081 503.487 396.646 504 395.006 504C388.342 503.59 381.577 503.59 374.811 503.692C374.811 503.59 374.811 503.59 374.811 503.692ZM253.742 311.787C250.667 312.095 245.336 311.787 240.005 312.095C234.88 312.402 229.856 312.71 224.731 313.12C212.429 314.042 200.23 316.093 188.031 317.835C183.213 318.553 179.42 320.296 176.857 324.601C170.399 335.263 164.965 346.334 160.455 357.918C159.737 359.763 159.942 359.968 161.89 359.763C169.271 358.841 176.652 358.328 184.135 358.021C196.437 357.508 208.739 356.893 221.143 356.791C243.696 356.586 266.249 356.38 288.802 356.996C300.693 357.303 312.687 357.406 324.579 357.918C333.088 358.328 341.596 358.841 350.105 359.763C352.258 359.968 352.565 359.763 351.745 357.816C347.85 347.667 342.929 338.031 337.803 328.497C334.318 322.141 329.705 318.758 322.324 317.528C300.283 314.042 278.243 311.787 253.742 311.787ZM155.124 434.393C159.635 434.291 164.145 434.496 168.553 434.291C174.602 433.983 177.267 429.78 175.319 424.142C173.269 418.401 169.066 415.121 163.223 414.096C153.791 412.455 144.258 411.123 134.724 410.303C128.368 409.79 125.19 413.993 126.83 420.041C127.343 421.887 128.163 423.527 128.881 425.27C131.648 431.318 136.364 434.291 142.925 434.393C146.923 434.496 151.023 434.393 155.124 434.393ZM357.178 434.496C357.178 434.393 357.178 434.393 357.178 434.496C360.766 434.496 364.354 434.496 367.942 434.496C369.172 434.496 370.403 434.393 371.633 434.291C380.346 433.368 384.652 425.065 385.575 418.196C386.292 413.276 384.037 410.815 379.116 410.303C378.194 410.2 377.168 410.303 376.246 410.405C373.17 410.713 370.095 411.02 367.02 411.43C360.664 412.353 354.205 412.763 348.055 414.301C342.519 415.633 338.828 419.016 336.983 424.45C335.343 429.473 337.598 433.368 342.826 434.291C344.057 434.496 345.287 434.496 346.517 434.598C350.002 434.496 353.59 434.496 357.178 434.496ZM351.745 445.67C347.029 445.67 342.211 445.67 337.496 445.67C336.06 445.67 334.625 445.875 333.293 446.695C330.32 448.54 330.422 452.231 333.395 453.871C334.625 454.588 336.06 454.999 337.598 454.999C347.029 454.999 356.461 455.101 365.892 454.999C367.84 454.999 369.685 454.486 371.223 453.153C373.375 451.206 373.273 448.745 370.813 447.105C369.377 446.182 367.84 445.67 366.097 445.67C361.381 445.67 356.563 445.67 351.745 445.67ZM160.352 445.567C155.842 445.567 151.434 445.567 146.923 445.567C145.488 445.567 144.053 445.67 142.72 446.387C141.08 447.105 140.055 448.335 139.952 450.18C139.85 452.128 140.977 453.256 142.515 454.076C143.848 454.691 145.283 455.101 146.718 455.101C155.944 455.101 165.17 455.101 174.397 455.101C176.344 455.101 178.087 454.486 179.625 453.461C182.085 451.718 182.085 449.053 179.625 447.31C177.882 446.08 175.832 445.67 173.781 445.67C169.373 445.567 164.863 445.567 160.352 445.567Z"
          fill="#282828"/>
    <path fill-rule="evenodd" clip-rule="evenodd"
          d="M46 194C46 188.477 50.4772 184 56 184H456C461.523 184 466 188.477 466 194V238C466 243.523 461.523 248 456 248H56C50.4772 248 46 243.523 46 238V194ZM66 204V228H446V204H66Z"
          fill="#282828"/>
    <path fill-rule="evenodd" clip-rule="evenodd"
          d="M250.526 1.63153C253.851 -0.543844 258.149 -0.543844 261.474 1.63153L501.474 158.632C504.298 160.479 506 163.626 506 167V502C506 507.523 501.523 512 496 512H456C450.477 512 446 507.523 446 502V204H66V503C66 508.523 61.5228 512 56 512H16C10.4772 512 6 507.523 6 502V167C6 163.626 7.70178 160.479 10.5256 158.632L250.526 1.63153ZM26 172.408V492H46V194C46 188.477 50.4772 184 56 184H456C461.523 184 466 188.477 466 194V492H486V172.408L256 21.9496L26 172.408Z"
          fill="#282828"/>
</svg>

<?xml version="1.0" encoding="utf-8"?>
<!-- Generator: Adobe Illustrator 28.2.0, SVG Export Plug-In . SVG Version: 6.00 Build 0)  -->
<svg version="1.1" id="Calque_1" xmlns="http://www.w3.org/2000/svg" xmlns:xlink="http://www.w3.org/1999/xlink" x="0px" y="0px"
	 viewBox="0 0 512 512" style="enable-background:new 0 0 512 512;" xml:space="preserve">
<style type="text/css">
	.st0{fill:#33B0DF;}
	.st1{fill:#282828;}
	.st2{fill-rule:evenodd;clip-rule:evenodd;fill:#282828;}
</style>
<path class="st0" d="M155,441.8c17.8,0,32.3-10,32.3-22.4S172.8,397,155,397s-32.3,10-32.3,22.4S137.2,441.8,155,441.8z"/>
<path class="st0" d="M356.6,441.8c17.8,0,32.3-10,32.3-22.4S374.4,397,356.6,397c-17.8,0-32.3,10-32.3,22.4S338.8,441.8,356.6,441.8
	z"/>
<path class="st1" d="M374.8,503.7c-6.5,0-12.9,0-19.5,0c-5.5,0-9.4-3.6-9.8-9c-0.2-3.3-0.2-3.4-3.5-3.6c-4.4-0.4-8.9-0.7-13.4-0.9
	c-9.7-0.4-19.4-0.6-29.1-0.9c-26.2-0.7-52.5-0.6-78.8-0.3c-17.2,0.2-34.4,0.7-51.7,2.2c-1.7,0.1-2.5,0.7-2.4,2.6
	c0.2,6-4.8,10.4-10.6,10.1c-12.7-0.3-25.4-0.3-38,0c-5.5,0.1-9.9-5.1-9.8-9.7c0.1-8.7,0.4-17.3-0.3-26c-0.8-9.6-1.5-19.4-2.4-29
	c-0.7-9.5-0.7-19,0.1-28.5c0.5-5.2,1-10.5,2.6-15.5c2.3-7.2,5.3-13.9,11.4-18.8c1.2-1,0.7-1.4-0.4-1.9c-4.2-1.8-8.3-3.9-11.1-7.7
	c-3.9-5.4-3.7-8.9,2.9-12.5c4.7-2.7,10-3.3,15.4-4c3.1-0.4,6.2-0.5,9.2-0.8c1.8-0.2,3.2,0.4,4.3,1.9c1,1.3,2,2.6,3.1,3.9
	c0.8,1.2,1.4,1.1,1.9-0.3c1.9-5.4,4.2-10.7,6.7-15.8c4.4-9.3,8.9-18.7,15.3-26.9c3.6-4.6,8.4-7.6,14.1-8.7
	c14.4-2.9,28.8-4.9,43.4-5.9c10.8-0.7,21.4-1.5,32.2-1.5c24.3,0,48.4,2.5,72.4,6.9c8.6,1.5,15.1,6.3,19.7,13.5
	c7.5,11.8,13.4,24.4,18.5,37.4c0.2,0.4,0.3,0.9,0.5,1.3c0.4,1.1,1,1.1,1.7,0.2c1.1-1.4,2.3-3,3.4-4.4c0.7-0.9,1.5-1.5,2.8-1.5
	c8.5,0.4,16.9,1,24.9,4.3c0.4,0.2,0.7,0.3,1.1,0.5c5.4,2.9,6.6,7.1,3,12.1c-2.8,3.9-6.9,6.2-11.1,8c-2.2,0.9-2.2,0.9-0.5,2.4
	c7.4,6.4,10.7,14.9,12.3,24.2c2.2,12.2,2.2,24.5,1.4,36.9c-1,18.7-3.7,37.2-2.8,56c0.2,3.8-1.3,6.7-4.4,8.8
	c-1.3,0.9-2.8,1.4-4.4,1.4C388.3,503.6,381.6,503.6,374.8,503.7C374.8,503.6,374.8,503.6,374.8,503.7z M253.7,311.8
	c-3.1,0.3-8.4,0-13.7,0.3c-5.1,0.3-10.1,0.6-15.3,1c-12.3,0.9-24.5,3-36.7,4.7c-4.8,0.7-8.6,2.5-11.2,6.8
	c-6.5,10.7-11.9,21.7-16.4,33.3c-0.7,1.8-0.5,2,1.4,1.8c7.4-0.9,14.8-1.4,22.2-1.7c12.3-0.5,24.6-1.1,37-1.2
	c22.6-0.2,45.1-0.4,67.7,0.2c11.9,0.3,23.9,0.4,35.8,0.9c8.5,0.4,17,0.9,25.5,1.8c2.2,0.2,2.5,0,1.6-1.9
	c-3.9-10.1-8.8-19.8-13.9-29.3c-3.5-6.4-8.1-9.7-15.5-11C300.3,314,278.2,311.8,253.7,311.8z M155.1,434.4c4.5-0.1,9,0.1,13.4-0.1
	c6-0.3,8.7-4.5,6.8-10.1c-2.1-5.7-6.3-9-12.1-10c-9.4-1.6-19-3-28.5-3.8c-6.4-0.5-9.5,3.7-7.9,9.7c0.5,1.8,1.3,3.5,2.1,5.2
	c2.8,6,7.5,9,14,9.1C146.9,434.5,151,434.4,155.1,434.4z M357.2,434.5C357.2,434.4,357.2,434.4,357.2,434.5c3.6,0,7.2,0,10.8,0
	c1.2,0,2.5-0.1,3.7-0.2c8.7-0.9,13-9.2,13.9-16.1c0.7-4.9-1.5-7.4-6.5-7.9c-0.9-0.1-1.9,0-2.9,0.1c-3.1,0.3-6.2,0.6-9.2,1
	c-6.4,0.9-12.8,1.3-19,2.9c-5.5,1.3-9.2,4.7-11.1,10.1c-1.6,5,0.6,8.9,5.8,9.8c1.2,0.2,2.5,0.2,3.7,0.3
	C350,434.5,353.6,434.5,357.2,434.5z M351.7,445.7c-4.7,0-9.5,0-14.2,0c-1.4,0-2.9,0.2-4.2,1c-3,1.8-2.9,5.5,0.1,7.2
	c1.2,0.7,2.7,1.1,4.2,1.1c9.4,0,18.9,0.1,28.3,0c1.9,0,3.8-0.5,5.3-1.8c2.2-1.9,2.1-4.4-0.4-6c-1.4-0.9-3-1.4-4.7-1.4
	C361.4,445.7,356.6,445.7,351.7,445.7z M160.4,445.6c-4.5,0-8.9,0-13.4,0c-1.4,0-2.9,0.1-4.2,0.8c-1.6,0.7-2.7,1.9-2.8,3.8
	c-0.1,1.9,1,3.1,2.6,3.9c1.3,0.6,2.8,1,4.2,1c9.2,0,18.5,0,27.7,0c1.9,0,3.7-0.6,5.2-1.6c2.5-1.7,2.5-4.4,0-6.2
	c-1.7-1.2-3.8-1.6-5.8-1.6C169.4,445.6,164.9,445.6,160.4,445.6z"/>
<path class="st2" d="M46,194c0-5.5,4.5-10,10-10h400c5.5,0,10,4.5,10,10v44c0,5.5-4.5,10-10,10H56c-5.5,0-10-4.5-10-10V194z M66,204
	v24h380v-24H66z"/>
<path class="st2" d="M250.5,1.6c3.3-2.2,7.6-2.2,10.9,0l240,157c2.8,1.8,4.5,5,4.5,8.4v335c0,5.5-4.5,10-10,10h-40
	c-5.5,0-10-4.5-10-10V204H66v299c0,5.5-4.5,9-10,9H16c-5.5,0-10-4.5-10-10V167c0-3.4,1.7-6.5,4.5-8.4L250.5,1.6z M26,172.4V492h20
	V194c0-5.5,4.5-10,10-10h400c5.5,0,10,4.5,10,10v298h20V172.4L256,21.9L26,172.4z"/>
</svg>
